X:1
T:Come to Me (Werdebaugh)
T:Come to Me (Werdebaugh)
T:Scott Werdebaugh, 2018
T:Lura Hammond, 1913, & Scott Werdebaugh, 2018
T:© 2018 by Scott Werdebaugh &amp; New Heart Music - May copy &amp; use freely for Christian worship or devotions with no alterations. All other rights reserved.
T:© 2018 by Scott Werdebaugh &amp; New Heart Music - May copy &amp; use freely for Christian worship or devotions with no alterations. All other rights reserved.
C:Scott Werdebaugh, 2018
Z:© 2018 by Scott Werdebaugh & New Heart Music - May copy & use freely for
Z:Christian worship or devotions with no alterations. All other rights reserved.
%%score 1 2
L:1/8
Q:1/4=108
M:4/4
K:C
V:1 treble 
V:2 bass 
V:1
 [CE]2 [CF]2 [EG]2 [G,C]2 | [CA]3 [DG] [EG]4 | [FA]2 [EG]2 [DF]2 [CE]2 | [CE]3 [CF] [B,D]4 | %4
w: 1.~Hear the Sav- ior’s|gen- tle voice,|In His mer- cy|now re- joice|
w: 2.~Je- sus left His|home on high,|Came for sin- ful|man to die;|
w: 3.~If you’ll come, con-|fess your sin,|Life e- ter- nal|you may win,|
 [CE]2 [CF]2 [EG]2 [CE]2 | [CA]2 [DB]2 [Ec]3 [Ec] | [DB]6 z2 | [Ec]2 [DB]2 [CA]2 [EG]2 | %8
w: For He calls each|one by sin op-|pressed;|Come, ac- cept His|
w: Still He’s plead- ing|with sin- ners dis-|tressed;|O He suf- fered|
w: And He’ll guide to|the land of the|blest;|O no long- er|
 [FA]3 [DB] [Ec]4 | [DB]2 [DB]2 [Ec]2 [DB]2 | [CA]3 [CA] [DG]4 | [Ec]4 [Ec]2 [DB]2 | %12
w: love to- day,|He will wash your|sins a- way,|Come, all you|
w: death for all,|To re- deem them|from the fall,|Come, all you|
w: heed- less be,|Trust Him and for|aye be free,|Come, all you|
 [CA]2 [DB]2 [Ec]3 [DB] | [Ec]2 [DB]2 [CA]2 [DB]2 | [Ec]6 z2 ||"^Refrain" [Ec]6 [FA]2 | [EG]6 z2 | %17
w: wear- y ones, and|I will give you|rest!|||
w: wear- y ones, and|I will give you|rest!|Come to|Me,|
w: wear- y ones, and|I will give you|rest!|||
 [CA]6 [CF]2 | [CE]6 z2 | [DF]2 [EG]2 [FA][FA] [EG]2 | [CF]2 [CF]2 [FA]3 [CA] | [DG]6 z2 | %22
w: |||||
w: come to|Me,|Though by bur- den of|sin you are op-|pressed;|
w: |||||
 [Ec]6 [FA]2 | [EG]6 z2 | [CA]6 [DB]2 | [CE]6 z2 | [FA]4 [EG]2 [CF]2 | [EG]3 [EG] [CE]3 [CE] | %28
w: ||||||
w: Come to|Me,|come to|Me,|Come, all you|wear- y ones, and|
w: ||||||
 [G,C]2 [CE]2 [B,D]3 [A,C] | [G,C]6 z2"^Play 3 times" :| %30
w: ||
w: I will give you|rest!|
w: ||
V:2
 [C,G,]2 [F,A,]2 [C,G,]2 [C,E,]2 | [F,,F,]3 [G,,B,] [C,C]4 | [F,C]2 [C,C]2 [G,B,]2 [C,G,]2 | %3
 [C,G,]3 [F,A,] [G,,G,]4 | [C,G,]2 [F,A,]2 [C,C]2 [C,G,]2 | [F,A,]2 [G,,G,]2 [C,G,]3 [C,G,] | %6
 [G,,G,]6 z2 | [C,G,]2 [G,,G,]2 [F,,F,]2 [C,C]2 | [F,C]3 [G,B,] [C,G,]4 | %9
 [G,,G,]2 [G,,G,]2 [C,G,]2 [G,,G,]2 | [F,A,]3 [F,A,] [G,B,]4 | [C,G,]4 [C,G,]2 [G,,G,]2 | %12
 [F,,F,]2 [G,,G,]2 [C,G,]3 [G,,G,] | [C,G,]2 [G,,G,]2 [F,A,]2 [G,,G,]2 | [C,G,]6 z2 || %15
 [C,G,]6 [F,C]2 | [C,C]6 z2 | [F,,F,]6 [F,A,]2 | [C,G,]6 z2 | [G,B,]2 [C,C]2 [F,C][F,C] [C,C]2 | %20
 [F,A,]2 [F,A,]2 [F,C]3 [F,A,] | [G,B,]6 z2 | [C,G,]6 [F,C]2 | [C,C]6 z2 | [F,,F,]6 [G,,G,]2 | %25
 [C,G,]6 z2 | [F,C]4 [C,C]2 [F,A,]2 | [C,C]3 [C,C] [C,G,]3 [C,G,] | %28
 [C,E,]2 [C,G,]2 [G,,G,]3 [F,,F,] | [C,E,]6 z2"^Play 3 times" :| %30

